!!!!SEGMENT: pl-cz--ii-156--002_malik-jan--marsz-d.krn
!!!cenid: 18xx:977
!!!COM: Malik, Jan
!!!COM-rismid: pe30023932
!!!CDT: ~1800-1866
!!!CNT: Czech
!!!OTL: Marsz D
!!!PDT: 1857
!!!AGN: Sacred; Mass
!!!SMS-siglum: PL-CZ
!!!SMS-shelfmark: II-156
!!!SMS-shelfwork: 002 W
!!!SMS-variant:
!!!SMS-altvar:
!!!NIFC-rismid: 300000811
!!!URL-scan: http://repozytorium.nifc.pl/skany/pl-cz-nut--ii-156
!!!ONB-nifc: UWAGA: w źródle tytuł Marsz II
**kern	**kern	**kern	**dynam	**kern	**dynam	**kern	**kern	**dynam	**kern	**dynam	**kern	**dynam
*part8	*part7	*part6	*part6	*part5	*part5	*part4	*part3	*part3	*part2	*part2	*part1	*part1
*staff8	*staff7	*staff6	*	*staff5	*	*staff4	*staff3	*	*staff2	*	*staff1	*
*	*group2	*group2	*	*group2	*	*group2	*group2	*	*group1	*	*group1	*
*Iempty	*Iempty	*Itromp	*	*Iempty	*	*Iempty	*Icor	*	*Iempty	*	*Iempty	*
*I"Tambur Grand in A und B	*I"Bombardon.	*I"Tromba in D.	*	*I"Tromba in D:	*	*I"[Corno 2 in D]	*I"Corni in Es.	*	*I"Clari. in D:	*	*I"Cla: in D	*
*I'grancassa	*I'bombarde	*I'tr 2 in D	*	*I'tr 1 in D	*	*I'[cor 2 in D]	*I'cor in Es	*	*I'cl 2 in D	*	*I'cl 1 in D	*
*clefG2	*clefF4	*clefG2	*	*clefG2	*	*clefG2	*clefG2	*	*clefG2	*	*clefG2	*
*	*	*ITrd-1c-2	*	*ITrd-1c-2	*	*ITrd6c10	*ITrd6c10	*	*ITrd-1c-2	*	*ITrd-1c-2	*
*k[g-c-f-c#a#d#]	*k[f#c#]	*k[f#c#]	*	*k[f#c#]	*	*k[f#c#]	*k[f#c#]	*	*k[f#c#]	*	*k[f#c#]	*
*D:	*D:	*D:	*	*D:	*	*D:	*D:	*	*D:	*	*D:	*
*	*M4/4	*M4/4	*	*M4/4	*	*M4/4	*M4/4	*	*M4/4	*	*M4/4	*
*	*met(c)	*met(c)	*	*met(c)	*	*met(c)	*met(c)	*	*met(c)	*	*met(c)	*
8r	8D\	8f#/	.	8a/	.	8d 8F#\	8d 8D/	.	8a/	.	8aa\	.
=1	=1	=1	=1	=1	=1	=1	=1	=1	=1	=1	=1	=1
*	*2\right	*	*	*	*	*2\right	*	*	*	*	*2\right	*
!	!	!	!	!	!	!	!	!	!	!LO:DY:rj	!	!
2Rf/	2D\	2f#/	.	2a/	f	2d 2F#\	2d 2D/	.	2a/	fff	2aa\	fff
2r	4D\	4d/	.	4f#/	.	8d 8F#\	4d 4D/	.	4f#/	.	4ff#\	.
.	.	.	.	.	.	8r	.	.	.	.	.	.
.	8r	8r	.	8r	.	8r	8r	.	8r	.	8r	.
.	8D\	8a/	.	8a/	.	8f# 8A\	8d 8D/	.	8a/	.	8aa\	.
=2	=2	=2	=2	=2	=2	=2	=2	=2	=2	=2	=2	=2
*rep	*rep	*	*	*2\right	*	*	*	*	*2\right	*	*	*
2Rf/	2D\	2a/	.	2dd\	.	2f# 2A\	2d 2D/	.	(2dd\	.	2ddd\	.
2r	4D\	4a/	.	4a/	.	4d 4F#\	4d 4D/	.	4a/)	.	4aa\	.
.	8r	8r	.	8r	.	4r	4r	.	8r	.	8r	.
.	8D\	8f#/	.	8a/	.	.	.	.	8a/	.	8aa\	.
*Xrep	*Xrep	*	*	*	*	*	*	*	*	*	*	*
=3	=3	=3	=3	=3	=3	=3	=3	=3	=3	=3	=3	=3
4Ra/	4D\	4f#/	.	4a/	.	4f# 4d\	4d 4D/	.	4a/	.	4aa\	.
4r	4r	4r	.	8f#/L	.	4r	4r	.	8f#/L	.	8ff#\L	.
.	.	.	.	8d/J	.	.	.	.	8d/J	.	8dd\J	.
2Ra#/	2D\	2fX/	.	4dd\	.	2fX 2d\	2d 2D/	.	4dd\	.	4ddd\	.
.	.	.	.	8cc#\L	.	.	.	.	8cc#\L	.	8ccc#\L	.
.	.	.	.	8b\J	.	.	.	.	8b\J	.	8bb\J	.
=4	=4	=4	=4	=4	=4	=4	=4	=4	=4	=4	=4	=4
2Ran/	2D\	2f#X/	.	2a/	.	2f#X 2d\	2d 2D/	.	2a/	.	2aa\	.
2r	2r	2r	.	8a/L	.	2r	2r	.	8a/L	.	8aa\L	.
.	.	.	.	8g#X/	.	.	.	.	8g#X/	.	8gg#X\	.
.	.	.	.	8a/	.	.	.	.	8a/	.	8aa\	.
.	.	.	.	8a#X/J	.	.	.	.	8a#X/J	.	8aa#X\J	.
=5	=5	=5	=5	=5	=5	=5	=5	=5	=5	=5	=5	=5
4Ra/	4AA/	4r	.	4b/	.	4r	4r	.	4b/	.	4bb\	.
!	!	!	!	!	!	!	!	!	!LO:SIC:v:s=4e/	!	!	!
4r	4r	4g/	.	4e/	.	4e 4A\	4G/	.	4f#/	.	4ee\	.
4Ra/	4AA/	4r	.	[>2b/	.	4r	4r	.	[>2b/	.	[2bb\	.
4r	4r	4g/	.	.	.	4e 4A\	4G/	.	.	.	.	.
!	!	!	!	!LO:LB:g=original	!	!	!	!	!LO:LB:g=original	!	!LO:LB:g=original	!
=6	=6	=6	=6	=6	=6	=6	=6	=6	=6	=6	=6	=6
*rep	*rep	*rep	*	*	*	*rep	*rep	*	*	*	*	*
4Ra/	4AA/	4r	.	4.b/]	.	4r	4r	.	4.b/]	.	4.bb\]	.
4r	4r	4g/	.	.	.	4e 4A\	4G/	.	.	.	.	.
.	.	.	.	8b/	.	.	.	.	8b/	.	8bb\	.
4Ra/	4AA/	4r	.	4a/	.	4r	4r	.	4a/	.	4aa\	.
4r	4r	4g/	.	4g#X/	.	4e 4A\	4G/	.	4g#X/	.	4gg#X\	.
*Xrep	*Xrep	*Xrep	*	*	*	*Xrep	*Xrep	*	*	*	*	*
!	!	!	!	!	!	!LO:LB:g=original	!LO:LB:g=original	!	!	!	!	!
=7	=7	=7	=7	=7	=7	=7	=7	=7	=7	=7	=7	=7
*rep	*	*	*	*	*	*	*	*	*	*	*	*
4Ra/	4DD/	4r	.	4b/	.	4r	4r	.	4b\	.	4bb\	.
4r	4r	4f#/	.	4a/	.	4d 4F#\	4A/	.	4a\	.	4aa\	.
*	*	*rep	*	*	*	*	*	*	*	*	*	*
.	.	.	.	8qa/	.	.	.	.	8qa/	.	8qccc#/	.
4Ra/	4DD/	4r	.	[2dd\	.	4r	4r	.	[2dd\	.	[2ddd\	.
4r	4r	4f#/	.	.	.	4d 4F#\	4A/	.	.	.	.	.
*Xrep	*	*Xrep	*	*	*	*	*	*	*	*	*	*
!	!	!LO:LB:g=original	!	!	!	!	!	!	!	!	!	!
=8	=8	=8	=8	=8	=8	=8	=8	=8	=8	=8	=8	=8
*rep	*rep	*	*	*	*	*rep	*rep	*	*	*	*	*
4Ra/	4DD/	4r	.	4.dd\]	.	4r	4r	.	4.dd\]	.	4.ddd\]	.
4r	4r	4f#/	.	.	.	4d 4F#\	4A/	.	.	.	.	.
.	.	.	.	8cc#\	.	.	.	.	8cc#\	.	8ccc#\	.
4Ra/	4DD/	4r	.	4b\	.	4r	4r	.	4b\	.	4bb\	.
4r	4r	4f#/	.	4a\	.	4d 4F#\	4A/	.	4a\	.	4aa\	.
*Xrep	*Xrep	*	*	*	*	*Xrep	*Xrep	*	*	*	*	*
!	!LO:LB:g=original	!	!	!	!	!	!	!	!	!	!	!
=9	=9	=9	=9	=9	=9	=9	=9	=9	=9	=9	=9	=9
*rep	*	*	*	*	*	*	*	*	*	*	*	*
4Ra/	4AA/	4r	.	4b\	.	4r	4r	.	4b/	.	4bb\	.
4r	4r	4g/	.	4a\	.	4e 4A\	4G/	.	4a/	.	4aa\	.
*	*	*	*	*	*	*rep	*rep	*	*	*	*	*
4Ra/	4AA/	4r	.	[2e/	.	4e 4A\	4r	.	2e/	.	2ee\	.
*	*	*	*	*	*	*Xrep	*	*	*	*	*	*
*	*	*	*	*	*	*rep	*	*	*	*	*	*
4r	4r	4g/	.	.	.	4e 4A\	4G/	.	.	.	.	.
*Xrep	*	*	*	*	*	*Xrep	*Xrep	*	*	*	*	*
=10	=10	=10	=10	=10	=10	=10	=10	=10	=10	=10	=10	=10
*rep	*rep	*rep	*	*	*	*rep	*	*	*	*	*	*
4Ra/	4AA/	4r	.	4e/]	.	4r	4r	.	4e/	.	4ee\	.
4r	4r	4g/	.	8f#/L	.	4e 4A\	4G/	.	8f#/L	.	8ff#\L	.
.	.	.	.	8e/J	.	.	.	.	8e/J	.	8ee\J	.
*	*	*	*	*	*	*	*rep	*	*	*	*	*
4Ra/	4AA/	4r	.	4d#X/	.	4e 4A\	4G/	.	4d#X/	.	4dd#X\	.
*	*	*	*	*	*	*	*Xrep	*	*	*	*	*
*	*	*	*	*	*	*	*rep	*	*	*	*	*
4r	4r	4g/	.	4e/	.	4e 4A\	4G/	.	4e/	.	4ee\	.
*Xrep	*Xrep	*Xrep	*	*	*	*Xrep	*Xrep	*	*	*	*	*
!LO:LB:g=original	!	!	!	!	!	!	!	!	!	!	!	!
=11	=11	=11	=11	=11	=11	=11	=11	=11	=11	=11	=11	=11
*rep	*	*	*	*	*	*	*	*	*	*	*	*
4Ra/	4DD/	4r	.	4g/	.	4r	4r	.	4g/	.	4gg\	.
4r	4r	4f#/	.	4f#/	.	4d 4F#\	4A/	.	4f#/	.	4ff#\	.
*	*	*	*	*	*	*	*rep	*	*	*	*	*
4Ra/	4DD/	4r	.	2d/	.	4r	4r	.	2d/	.	2dd\	.
4r	4r	4f#/	.	.	.	4d 4F#\	4A/	.	.	.	.	.
*Xrep	*	*	*	*	*	*	*Xrep	*	*	*	*	*
!	!	!	!	!LO:LB:g=original	!	!	!	!	!LO:LB:g=original	!	!LO:LB:g=original	!
=12	=12	=12	=12	=12	=12	=12	=12	=12	=12	=12	=12	=12
*rep	*rep	*rep	*	*	*	*	*	*	*	*	*	*
4Ra/	4DD/	4r	.	4r	.	4r	4r	.	4r	.	4r	.
4r	4r	4f#/	.	8r	.	4d 4F#\	4A/	.	8r	.	8r	.
.	.	.	.	8a/	.	.	.	.	8a/	.	8aa\	.
*	*	*	*	*	*	*rep	*rep	*	*	*	*	*
4Ra/	4DD/	4r	.	4.g#X/	.	4d 4F#\	4A/	.	4.g#X/	.	4.gg#X\	.
*	*	*	*	*	*	*Xrep	*Xrep	*	*	*	*	*
*	*	*	*	*	*	*rep	*rep	*	*	*	*	*
4r	4r	4f#/	.	.	.	4d 4F#\	4A/	.	.	.	.	.
.	.	.	.	8a/	.	.	.	.	8a/	.	8aa\	.
*Xrep	*Xrep	*Xrep	*	*	*	*Xrep	*Xrep	*	*	*	*	*
=13	=13	=13	=13	=13	=13	=13	=13	=13	=13	=13	=13	=13
*rep	*	*	*	*	*	*	*	*	*	*	*	*
!	!	!	!	!LO:TX:b:t=a	!	!	!	!	!	!	!	!
4Ra/	4AA/	4r	.	4b/	.	4r	4r	.	4b/	.	4bb\	.
4r	4r	4g/	.	4e/	.	4e 4A\	4A/	.	4e/	.	4ee\	.
*	*	*	*	*	*	*	*rep	*	*	*	*	*
4Ra/	4AA/	4r	.	2b/	.	4r	4r	.	[2b/	.	[2bb\	.
4r	4r	4g/	.	.	.	4e 4A\	4A/	.	.	.	.	.
*Xrep	*	*	*	*	*	*	*Xrep	*	*	*	*	*
=14	=14	=14	=14	=14	=14	=14	=14	=14	=14	=14	=14	=14
*rep	*rep	*rep	*	*	*	*rep	*rep	*	*	*	*	*
4Ra/	4AA/	4r	.	4.b/	.	4r	4r	.	4.b/]	.	4.bb\]	.
4r	4r	4g/	.	.	.	4e 4A\	4A/	.	.	.	.	.
.	.	.	.	8b/	.	.	.	.	8b/	.	8bb\	.
4Ra/	4AA/	4r	.	4a/	.	4r	4r	.	4a/	.	4aa\	.
4r	4r	4g/	.	4g#X/	.	4e 4A\	4A/	.	4g#X/	.	4gg#X\	.
*Xrep	*Xrep	*Xrep	*	*	*	*Xrep	*Xrep	*	*	*	*	*
!	!	!	!	!	!	!LO:LB:g=original	!	!	!	!	!	!
=15	=15	=15	=15	=15	=15	=15	=15	=15	=15	=15	=15	=15
*rep	*	*	*	*	*	*	*rep	*	*	*	*	*
4Ra/	4DD/	4r	.	4b/	.	4r	4r	.	4b/	.	4bb\	.
4r	4r	4f#/	.	4a/	.	4d 4F#\	4A/	.	4a/	.	4aa\	.
*	*	*	*	*	*	*rep	*	*	*	*	*	*
.	.	.	.	8qa/	.	.	.	.	8qa/	.	8qccc#/	.
4Ra/	4DD/	4r	.	[2dd\	.	4r	4r	.	[2dd\	.	[2ddd\	.
4r	4r	4f#/	.	.	.	4d 4F#\	4A/	.	.	.	.	.
*Xrep	*	*	*	*	*	*Xrep	*Xrep	*	*	*	*	*
=16	=16	=16	=16	=16	=16	=16	=16	=16	=16	=16	=16	=16
*rep	*rep	*rep	*	*	*	*	*rep	*	*	*	*	*
4Ra/	4DD/	4r	.	4.dd\]	.	4r	4r	.	4.dd\]	.	4.ddd\]	.
4r	4r	4f#/	.	.	.	4d 4F#\	4A/	.	.	.	.	.
.	.	.	.	8cc#\	.	.	.	.	8cc#\	.	8ccc#\	.
4Ra/	4DD/	4r	.	4b\	.	4r	4r	.	4b\	.	4bb\	.
4r	4r	4f#/	.	4a\	.	4d 4F#\	4A/	.	4a\	.	4aa\	.
*Xrep	*Xrep	*Xrep	*	*	*	*	*Xrep	*	*	*	*	*
!	!	!LO:LB:g=original	!	!	!	!	!LO:LB:g=original	!	!	!	!	!
=17	=17	=17	=17	=17	=17	=17	=17	=17	=17	=17	=17	=17
*rep	*	*	*	*	*	*	*	*	*	*	*	*
4Ra/	4EE/	4.G#X/	.	4.g#X/	.	1e 1G#X	[1d	.	4.g#X/	.	4.gg#X\	.
4r	4r	.	.	.	.	.	.	.	.	.	.	.
.	.	8A/	.	8a/	.	.	.	.	8a/	.	8aa\	.
4Ra/	4EE/	4.B/	.	4.b/	.	.	.	.	4.b/	.	4.bb\	.
4r	4r	.	.	.	.	.	.	.	.	.	.	.
.	.	8c#/	.	8cc#/	.	.	.	.	8cc#/	.	8ccc#\	.
*Xrep	*	*	*	*	*	*	*	*	*	*	*	*
!	!	!	!	!LO:LB:g=original	!	!	!	!	!LO:LB:g=original	!	!LO:LB:g=original	!
=18	=18	=18	=18	=18	=18	=18	=18	=18	=18	=18	=18	=18
*rep	*rep	*	*	*	*	*rep	*rep	*	*	*	*	*
4Ra/	4EE/	4.d/	.	4.dd\	.	1e 1G#X	1d]	.	4.dd\	.	4.ddd\	.
4r	4r	.	.	.	.	.	.	.	.	.	.	.
.	.	8e/	.	8ee\	.	.	.	.	8ee\	.	8eee\	.
4Ra/	4EE/	4.f#/	.	4.ff#\	.	.	.	.	4.ff#\	.	4.fff#\	.
4r	4r	.	.	.	.	.	.	.	.	.	.	.
.	.	8G#X/	.	8g#X/	.	.	.	.	8g#X/	.	8gg#X\	.
*Xrep	*Xrep	*	*	*	*	*Xrep	*Xrep	*	*	*	*	*
!	!LO:LB:g=original	!	!	!	!	!	!	!	!	!	!	!
=19	=19	=19	=19	=19	=19	=19	=19	=19	=19	=19	=19	=19
4Ra/	4AA/	4e/	.	4a/	.	4e 4A\	4e\	.	4a/	.	4aa\	.
4r	8AA/L	8a/L	.	8a/L	.	8A/L	8A/L	.	4r	.	4r	.
.	8AA/J	8a/J	.	8a/J	.	8A/J	8A/J	.	.	.	.	.
2r	4AA/	4a/	.	4a/	.	4A/	4A/	.	2r	.	2r	.
.	4AA/	4a/	.	4a/	.	4A/	4A/	.	.	.	.	.
=20	=20	=20	=20	=20	=20	=20	=20	=20	=20	=20	=20	=20
!LO:TX:a:t=1	!	!	!	!	!	!	!	!	!	!	!LO:TX:a:t=1	!
1r	4AA/	4a/	.	4a/	.	4A/	4A/	.	1r	.	1r	.
*	*rep	*rep	*	*rep	*	*	*rep	*	*	*	*	*
.	4AAn/	4a/	.	4a/	.	4A/	4A/	.	.	.	.	.
*	*Xrep	*Xrep	*	*	*	*	*Xrep	*	*	*	*	*
*	*rep	*rep	*	*rep	*	*	*rep	*	*	*	*	*
.	4AA/	4a/	.	4a/	.	4A/	4A/	.	.	.	.	.
*	*Xrep	*Xrep	*	*	*	*	*Xrep	*	*	*	*	*
*	*rep	*rep	*	*rep	*	*	*rep	*	*	*	*	*
.	4AA/	4a/	.	4a/	.	4A/	4A/	.	.	.	.	.
*	*Xrep	*Xrep	*	*	*	*	*Xrep	*	*	*	*	*
=21	=21	=21	=21	=21	=21	=21	=21	=21	=21	=21	=21	=21
*	*	*tremolo	*	*tremolo	*	*	*	*	*tremolo	*	*tremolo	*
!	!	!LO:TX:b:i:t=....	!	!LO:TX:a:t=....	!	!	!	!	!	!	!LO:TX:a:t=....	!
4Ra\	4C#/	8c#'/L	.	8c#'/L	.	4r	4r	.	8cc#\L	.	8ee'\L	.
.	.	8c#'/	.	8c#'/	.	.	.	.	8cc#\	.	8ee'\	.
4r	4r	8c#'/	.	8c#'/	.	4e 4A\	4G/	.	8cc#\	.	8ee'\	.
.	.	8c#'/J	.	8c#'/J	.	.	.	.	8cc#\J	.	8ee'\J	.
*	*	*Xtremolo	*	*Xtremolo	*	*	*	*	*Xtremolo	*	*Xtremolo	*
4Ra\	4AA/	4c#/	.	4c#/	.	4r	4r	.	4cc#\	.	4ee\	.
4r	4r	4e/	.	4e/	.	4e 4A\	4G/	.	4ee\	.	4gg\	.
!	!	!	!	!	!	!LO:LB:g=original	!	!	!	!	!	!
=22	=22	=22	=22	=22	=22	=22	=22	=22	=22	=22	=22	=22
*rep	*	*	*	*	*	*	*	*	*	*	*	*
4Ra\	4D/	2d/	.	2f#/	.	4r	4r	.	2dd\	.	2ff#\	.
4r	4r	.	.	.	.	4d 4F#\	4A/	.	.	.	.	.
*	*	*	*	*	*	*rep	*rep	*	*	*	*	*
4Ra\	4AA/	4r	.	4r	.	4d 4F#\	4A/	.	4r	.	4r	.
*	*	*	*	*	*	*Xrep	*Xrep	*	*	*	*	*
*	*	*	*	*	*	*rep	*rep	*	*	*	*	*
4r	4r	4f#/	.	4a/	.	4d 4F#\	4A/	.	4ff#\	.	4aa\	.
*Xrep	*	*	*	*	*	*Xrep	*Xrep	*	*	*	*	*
!	!	!	!	!	!	!	!LO:LB:g=original	!	!	!	!	!
=23	=23	=23	=23	=23	=23	=23	=23	=23	=23	=23	=23	=23
*rep	*	*	*	*	*	*	*	*	*	*	*	*
4Ra\	4C#/	2e/	.	2g/	.	4r	4r	.	2ee\	.	2gg\	.
!	!	!	!	!	!	!LO:SIC:v:n=1:s=4e	!	!	!	!	!	!
4r	4r	.	.	.	.	4d 4A\	4G/	.	.	.	.	.
*	*	*	*	*	*	*rep	*rep	*	*	*	*	*
!	!	!	!	!	!	!LO:SIC:v:n=1:s=4e	!	!	!	!	!	!
4Ra\	4AA/	4r	.	4r	.	4d 4A\	4G/	.	4r	.	4r	.
*	*	*	*	*	*	*Xrep	*Xrep	*	*	*	*	*
*	*	*	*	*	*	*rep	*rep	*	*	*	*	*
!	!	!	!	!	!	!LO:SIC:v:n=1:s=4e	!	!	!	!	!	!
4r	4r	4g/	.	4b/	.	4d 4A\	4G/	.	4gg\	.	4bb\	.
*Xrep	*	*	*	*	*	*Xrep	*Xrep	*	*	*	*	*
!LO:LB:g=original	!	!LO:LB:g=original	!	!	!	!	!	!	!	!	!	!
=24	=24	=24	=24	=24	=24	=24	=24	=24	=24	=24	=24	=24
4Ra/	4D\	2.f#/	.	2.a/	.	4r	4r	.	2.ff#\	.	2.aa\	.
4Ra/	4A\	.	.	.	.	4d 4F#\	4A/	.	.	.	.	.
*	*	*	*	*	*	*rep	*rep	*	*	*	*	*
4Ra/	4F#\	.	.	.	.	4d 4F#\	4A/	.	.	.	.	.
*	*	*	*	*	*	*Xrep	*Xrep	*	*	*	*	*
*	*	*	*	*	*	*rep	*rep	*	*	*	*	*
4r	4D\	4d/	.	4f#/	.	4d 4F#\	4A/	.	4dd\	.	4ff#\	.
*	*	*	*	*	*	*Xrep	*Xrep	*	*	*	*	*
!	!	!	!	!LO:LB:g=original	!	!	!	!	!	!	!	!
=25	=25	=25	=25	=25	=25	=25	=25	=25	=25	=25	=25	=25
*	*	*tremolo	*	*tremolo	*	*	*	*	*tremolo	*	*tremolo	*
!	!	!LO:TX:b:i:t=....	!	!	!	!	!	!	!	!	!LO:TX:a:t=....	!
4Ra/	4C#/	8c#'/L	.	8e/L	.	4r	4r	.	8cc#\L	.	8ee'\L	.
.	.	8c#'/	.	8e/	.	.	.	.	8cc#\	.	8ee'\	.
4r	4r	8c#'/	.	8e/	.	4e 4A\	4G/	.	8cc#\	.	8ee'\	.
.	.	8c#'/J	.	8e/J	.	.	.	.	8cc#\J	.	8ee'\J	.
*	*	*Xtremolo	*	*Xtremolo	*	*	*	*	*Xtremolo	*	*Xtremolo	*
4Ra/	4AA/	4c#/	.	4e/	.	4r	4r	.	4cc#\	.	4dd\	.
4r	4r	4e/	.	4g/	.	4e 4A\	4G/	.	4ee\	.	4gg\	.
!	!	!	!	!	!	!	!	!	!LO:LB:g=original	!	!LO:LB:g=original	!
=26	=26	=26	=26	=26	=26	=26	=26	=26	=26	=26	=26	=26
4Ra/	4D/	4d/	.	4f#/	.	4f# 4d\	4d 4D\	.	4dd\	.	4ff#\	.
4Ra/	4D/	4f#/	.	4a/	.	4f# 4d\	4d 4D\	.	4ff#\	.	4aa\	.
*	*	*	*	*	*	*	*2\right	*	*	*	*	*
2Ra#^/	2GG#X/	2g#X/	.	4dd/	.	2fX 2d\	2d 2D\	.	4dd\	.	4ddd\	.
.	.	.	.	8cc#/L	.	.	.	.	8cc#\L	.	8ccc#\L	.
.	.	.	.	8b/J	.	.	.	.	8b\J	.	8bb\J	.
!	!LO:LB:g=original	!	!	!	!	!	!	!	!	!	!	!
=27	=27	=27	=27	=27	=27	=27	=27	=27	=27	=27	=27	=27
4Ra/	4AA/	4f#/	.	8a/L	.	4f#X 4d\	4d\	.	8a\L	.	8aa\L	.
.	.	.	.	8dd/J	.	.	.	.	8dd\J	.	8ddd\J	.
*	*rep	*	*	*	*	*	*	*	*	*	*	*
4Ran/	4AA/	4f#/	.	8f#/L	.	4f# 4d\	4d\	.	8ff#\L	.	8ff#\L	.
.	.	.	.	8a/J	.	.	.	.	8aa\J	.	8aa\J	.
*	*Xrep	*	*	*	*	*	*	*	*	*	*	*
*	*rep	*	*	*	*	*	*	*	*	*	*	*
4Ra/	4AA/	4e/	.	8g/L	.	4e 4A\	4c#X\	.	8gg\L	.	8gg\L	.
.	.	.	.	8b/J	.	.	.	.	8bb\J	.	8bb\J	.
*	*Xrep	*	*	*	*	*	*	*	*	*	*	*
*	*rep	*	*	*	*	*	*	*	*	*	*	*
4Ra/	4AA/	4e/	.	8c#/L	.	4e 4A\	4c#\	.	8cc#\L	.	8cc#\L	.
.	.	.	.	8e/J	.	.	.	.	8ee\J	.	8ee\J	.
*	*Xrep	*	*	*	*	*	*	*	*	*	*	*
=28	=28	=28	=28	=28	=28	=28	=28	=28	=28	=28	=28	=28
4Ra/	4D\	4f#/	.	4d/	.	4d 4F#\	4d\	.	4dd\	.	4dd\	.
*rep	*rep	*rep	*	*	*	*rep	*rep	*	*rep	*	*	*
4Ra/	4D\	4f#/	.	4d/	.	4d 4F#\	4d\	.	4dd\	.	4dd\	.
*Xrep	*Xrep	*Xrep	*	*	*	*Xrep	*Xrep	*	*Xrep	*	*	*
*rep	*rep	*rep	*	*	*	*rep	*rep	*	*rep	*	*	*
4Ra/	4D\	4f#/	.	4d/	.	4d 4F#\	4d\	.	4dd\	.	4dd\	.
*Xrep	*Xrep	*Xrep	*	*	*	*Xrep	*Xrep	*	*Xrep	*	*	*
4r	4r	4r	.	4r	.	4ryy	4ryy	.	4r	.	4r	.
=29:|!|:	=29:|!|:	=29:|!|:	=29:|!|:	=29:|!|:	=29:|!|:	=29:|!|:	=29:|!|:	=29:|!|:	=29:|!|:	=29:|!|:	=29:|!|:	=29:|!|:
!LO:TX:a:t=2	!	!	!LO:DY:rj	!	!	!LO:TX:a:t=2	!	!	!	!	!	!
0r	2F#\	2f#:/	f	2f#/	.	0r	2F#/	.	2f#/	.	2ff#\	.
.	4G#X\	4g#X/	.	4g#X/	.	.	4G#X/	.	4g#X/	.	4gg#X\	.
.	4A#X\	4a#X/	.	4a#X/	.	.	4A#X/	.	4a#X/	.	4aa#X\	.
!	!	!	!	!	!	!	!LO:LB:g=original	!	!	!	!	!
=30	=30	=30	=30	=30	=30	=30	=30	=30	=30	=30	=30	=30
.	4.B\	4.b/	.	4.b/	.	.	4.B/	.	4.b/	.	4.bb\	.
.	8F#\	8f#/	.	8f#/	.	.	8F#/	.	8f#/	.	8ff#\	.
.	4D\	4d/	.	4d/	.	.	4D/	.	4d/	.	4dd\	.
.	4BB/	4B/	.	4B/	.	.	4BB/	.	4B/	.	4b\	.
!	!	!LO:LB:g=original	!	!LO:LB:g=original	!	!	!	!	!	!	!LO:LB:g=original	!
=31	=31	=31	=31	=31	=31	=31	=31	=31	=31	=31	=31	=31
4b\	4FF#X/	4c#/	.	4f#/	.	4f# 4c#\	4F#/	.	4F#/	.	4f#/	.
4r	8.FF#/L	8.c#/L	.	8.f#/L	.	8.f#L 8.c#\	8.F#/L	.	8f#/L	.	8ff#\L	.
.	.	.	.	.	.	.	.	.	8f#/J	.	8ff#\J	.
.	16FF#/Jk	16c#/Jk	.	16f#/Jk	.	16f#Jk 16c#\	16F#/Jk	.	.	.	.	.
4Ra\	4FF#/	4c#/	.	4f#/	.	4f# 4c#\	4F#/	.	4f#/	.	4ff#\	.
4Ra\	4FF#/	4c#/	.	4f#/	.	4f# 4c#\	4F#/	.	4f#/	.	4ff#\	.
!	!	!	!	!	!	!	!	!	!LO:LB:g=original	!	!	!
=32	=32	=32	=32	=32	=32	=32	=32	=32	=32	=32	=32	=32
2Ra/	2FF#/	2c#/	.	2f#/	.	2f# 2c#\	2F#/	.	2f#/	.	2ff#\	.
2r	2r	2r	.	2r	.	2r	2r	.	2r	.	2r	.
!LO:LB:g=original	!	!	!	!	!	!	!	!	!	!	!	!
=33	=33	=33	=33	=33	=33	=33	=33	=33	=33	=33	=33	=33
4Ra/	4C#/	4r	.	8A/L	.	4r	4r	.	8A/L	.	8a/L	.
.	.	.	.	8B/	.	.	.	.	8B/	.	8b/	.
!	!	!	!	!	!	!LO:SIC:v:n=1:s=4e	!	!	!	!	!	!
4r	4r	4A/	.	8cX/	.	4d 4A\	4G/	.	8cX/	.	8ccX/	.
.	.	.	.	8c#/J	.	.	.	.	8c#/J	.	8cc#/J	.
*	*	*rep	*	*	*	*	*	*	*	*	*	*
4Ra/	4AA/	4r	.	2A/	.	4r	4r	.	2A/	.	2a/	.
!	!	!	!	!	!	!LO:SIC:v:n=1:s=4e	!	!	!	!	!	!
4r	4r	4A/	.	.	.	4d 4A\	4G/	.	.	.	.	.
*	*	*Xrep	*	*	*	*	*	*	*	*	*	*
=34	=34	=34	=34	=34	=34	=34	=34	=34	=34	=34	=34	=34
*rep	*	*	*	*	*	*	*	*	*	*	*	*
4Ra/	4D\	4r	.	8d/L	.	4r	4r	.	8d/L	.	8dd\L	.
.	.	.	.	8e/	.	.	.	.	8e/	.	8ee\	.
4r	4r	4d/	.	8fX/	.	4d 4F#\	4A/	.	8fX/	.	8ffX\	.
.	.	.	.	8f#/J	.	.	.	.	8f#/J	.	8ff#\J	.
*	*	*	*	*	*	*	*rep	*	*	*	*	*
4Ra/	4AA/	4r	.	2d/	.	4r	4r	.	2d/	.	2dd\	.
4r	4r	4d/	.	.	.	4d 4F#\	4A/	.	.	.	.	.
*Xrep	*	*	*	*	*	*	*Xrep	*	*	*	*	*
!	!LO:LB:g=original	!	!	!	!	!	!	!	!	!	!	!
=35	=35	=35	=35	=35	=35	=35	=35	=35	=35	=35	=35	=35
*rep	*	*	*	*	*	*	*	*	*	*	*	*
4Ra/	4AA/	4r	.	8c#/L	.	4r	4r	.	8c#/L	.	(8cc#\L	.
.	.	.	.	8b/	.	.	.	.	8b/	.	8bb\)	.
4r	4r	8A/L	.	8b/	.	4e 4A\	4A/	.	8b/	.	(8bb\	.
.	.	8A/J	.	8a/J	.	.	.	.	8a/J	.	8aa\J)	.
*	*	*	*	*	*	*rep	*rep	*	*	*	*	*
!	!	!	!	!	!	!	!	!	!	!	!	!LO:DY:a
4Ra/	4AA/	4A/	.	4.g/	.	4e 4A\	4A/	.	4.g/	.	4.gg\	f
*	*	*	*	*	*	*Xrep	*Xrep	*	*	*	*	*
*	*	*	*	*	*	*rep	*rep	*	*	*	*	*
4r	4r	4A/	.	.	.	4e 4A\	4A/	.	.	.	.	.
.	.	.	.	8c#/	.	.	.	.	8A/	.	8a/	.
*Xrep	*	*	*	*	*	*Xrep	*Xrep	*	*	*	*	*
!	!	!	!	!LO:LB:g=original	!	!	!	!	!	!	!LO:LB:g=original	!
=36	=36	=36	=36	=36	=36	=36	=36	=36	=36	=36	=36	=36
4Ra\	4D\	4r	.	8A/L	.	4r	4r	.	8A/L	.	(8a\L	.
.	.	.	.	8f#/	.	.	.	.	8f#/	.	8ff#\)	.
4Ra\	4r	8d/L	.	8f#/	.	4d 4F#\	4A/	.	8f#/	.	(8ff#\	.
.	.	8d/J	.	8e/J	.	.	.	.	8e/J	.	8ee\J)	.
*	*	*	*	*	*	*rep	*rep	*	*	*	*	*
4Ra\	4D\	4d/	.	4.d/	.	4d 4F#\	4A/	.	4.d/	.	4.dd\	.
*	*	*	*	*	*	*Xrep	*Xrep	*	*	*	*	*
*	*	*	*	*	*	*rep	*rep	*	*	*	*	*
4r	4r	4d/	.	.	.	4d 4F#\	4A/	.	.	.	.	.
.	.	.	.	8A/	.	.	.	.	8A/	.	8a\	.
*	*	*	*	*	*	*Xrep	*Xrep	*	*	*	*	*
!	!	!	!	!	!	!LO:LB:g=original	!LO:LB:g=original	!	!LO:LB:g=original	!	!	!
=37	=37	=37	=37	=37	=37	=37	=37	=37	=37	=37	=37	=37
4Ra\	4C#/	4r	.	8A/L	.	4r	4r	.	8A/L	.	8a/L	.
.	.	.	.	8B/	.	.	.	.	8B/	.	8b/	.
4r	4r	4A/	.	8cX/	.	4e 4A\	4G/	.	8cX/	.	8ccX/	.
.	.	.	.	8c#/J	.	.	.	.	8c#/J	.	8cc#/J	.
*	*	*rep	*	*	*	*	*	*	*	*	*	*
4Ra\	4AA/	4r	.	2A/	.	4r	4r	.	2A/	.	2a/	.
4r	4r	4A/	.	.	.	4e 4A\	4G/	.	.	.	.	.
*	*	*Xrep	*	*	*	*	*	*	*	*	*	*
!	!	!LO:LB:g=original	!	!	!	!	!	!	!	!	!	!
=38	=38	=38	=38	=38	=38	=38	=38	=38	=38	=38	=38	=38
*rep	*	*	*	*	*	*	*	*	*	*	*	*
4Ra\	4D/	4r	.	8d/L	.	4r	4r	.	8d/L	.	8dd\L	.
.	.	.	.	8e/	.	.	.	.	8e/	.	8ee\	.
4r	4r	4d/	.	8fX/	.	4d 4F#\	4A/	.	8fX/	.	8ffX\	.
.	.	.	.	8f#/J	.	.	.	.	8f#/J	.	8ff#\J	.
4Ra\	4AA/	4r	.	2d/	.	4r	4r	.	2d/	.	2dd\	.
4r	4r	4d/	.	.	.	4d 4F#\	4A/	.	.	.	.	.
*Xrep	*	*	*	*	*	*	*	*	*	*	*	*
=39	=39	=39	=39	=39	=39	=39	=39	=39	=39	=39	=39	=39
2Ra/	2AA/	4r	.	8c#/L	.	2e 2A\	2G/	.	8c#/L	.	(8cc#\L	.
.	.	.	.	8b/	.	.	.	.	8b/	.	8bb\)	.
.	.	8c#/L	.	8b/	.	.	.	.	8b/	.	(8bb\	.
.	.	8c#/J	.	8a/J	.	.	.	.	8a/J	.	8aa\J)	.
2Ra/	4AA/	4c#/	.	8g/L	.	4e 4A\	4G/	.	8g/L	.	8gg\L	.
.	.	.	.	8e/	.	.	.	.	8e/	.	8ee\	.
.	4AA/	4c#/	.	8B/	.	4e 4A\	4G/	.	8B/	.	8b\	.
.	.	.	.	8c#/J	.	.	.	.	8c#/J	.	8cc#\J	.
!	!	!	!	!LO:LB:g=original	!	!	!	!	!	!	!	!
=40	=40	=40	=40	=40	=40	=40	=40	=40	=40	=40	=40	=40
4Ra/	4D\	4d/	.	4d/	.	4d 4F#\	4A/	.	4d/	.	4dd\	.
*	*rep	*rep	*	*	*	*rep	*rep	*	*	*	*	*
4Ra/	4D\	4d/	.	8.d/L	.	4d 4F#\	4A/	.	8.d/L	.	8.dd\L	.
.	.	.	.	16d/Jk	.	.	.	.	16d/Jk	.	16dd\Jk	.
*	*Xrep	*Xrep	*	*	*	*Xrep	*Xrep	*	*	*	*	*
*	*rep	*rep	*	*	*	*rep	*rep	*	*	*	*	*
4Ra/	4D\	4d/	.	4d/	.	4d 4F#\	4A/	.	4d/	.	4dd\	.
*	*Xrep	*Xrep	*	*	*	*Xrep	*Xrep	*	*	*	*	*
4r	4r	4r	.	4r	.	4r	4ryy	.	4r	.	4r	.
!	!LO:LB:g=original	!	!	!LO:LB:g=original	!	!	!LO:LB:g=original	!	!LO:LB:g=original	!	!LO:LB:g=original	!
=41:|!	=41:|!	=41:|!	=41:|!	=41:|!	=41:|!	=41:|!	=41:|!	=41:|!	=41:|!	=41:|!	=41:|!	=41:|!
*k[bndnan]	*k[f#]	*k[f#]	*	*k[f#]	*	*	*k[f#]	*	*k[f#]	*	*k[f#]	*
*M4/4	*	*	*	*	*	*M4/4	*M4/4	*	*M4/4	*	*M4/4	*
*met(c)	*	*	*	*	*	*met(c)	*met(c)	*	*met(c|)	*	*met(c)	*
!LO:TX:a:t=Trio	!LO:TX:a:t=Trio	!LO:TX:a:t=Trio	!	!LO:TX:a:t=Trio	!	!	!LO:TX:a:t=Trio	!	!LO:TX:a:t=Trio	!	!LO:TX:a:t=Trio	!
!	!	!	!	!	!	!	!	!	!LO:TX:t=P:problem:przy kluczu błędnie a-	!	!LO:TX:t=P:problem:przy kluczu błędnie a-	!
4Ra\	4GG/	4r	.	4r	.	4d 4B\	4G/	p	1r	.	1r	.
*	*	*	*	*	*	*	*rep	*	*	*	*	*
!LO:TX:a:Bi:t=1	!	!	!	!	!	!	!	!	!	!	!	!
4r	4r	4g/	.	4g/	.	4r	4G/	.	.	.	.	.
*	*	*	*	*	*	*	*Xrep	*	*	*	*	*
*	*	*	*	*rep	*	*	*rep	*	*	*	*	*
4Ra\	4GG/	4r	.	4r	.	4d 4B\	4G/	.	.	.	.	.
*	*	*	*	*	*	*	*Xrep	*	*	*	*	*
*	*	*	*	*	*	*	*rep	*	*	*	*	*
!	!	!	!	!	!	!LO:TX:t=P:problem:brak pauzy 4r	!	!	!	!	!	!
4r	4r	4g/	.	4g/	.	4ryy	4G/	.	.	.	.	.
*	*	*	*	*Xrep	*	*	*Xrep	*	*	*	*	*
=42	=42	=42	=42	=42	=42	=42	=42	=42	=42	=42	=42	=42
*rep	*rep	*rep	*	*	*	*	*rep	*	*	*	*	*
4Ra\	4GG/	4r	.	4r	.	4d 4B\	4G/	.	4r	.	4r	.
4r	4r	4g/	.	8r	.	4r	4G/	.	8r	.	8r	.
.	.	.	.	8d/	.	.	.	.	8d/	.	8dd\	.
4Ra\	4GG/	4r	.	4.g/	.	4d 4B\	4G/	.	4.g/	.	4.gg\	.
!	!	!	!	!	!	!LO:TX:t=P:problem:brak pauzy 4r	!	!	!	!	!	!
4r	4r	4g/	.	.	.	4ryy	4G/	.	.	.	.	.
.	.	.	.	8a/	.	.	.	.	8a/	.	8aa\	.
*Xrep	*Xrep	*Xrep	*	*	*	*	*Xrep	*	*	*	*	*
=43	=43	=43	=43	=43	=43	=43	=43	=43	=43	=43	=43	=43
*rep	*rep	*rep	*	*	*	*rep	*rep	*	*	*	*	*
!	!	!	!	!	!	!	!	!	!LO:N:vis=2	!	!LO:N:vis=2	!
4Ra\	4GG/	4r	.	[1b	.	4d 4B\	4G/	.	[1b	.	[1bb	.
4r	4r	4g/	.	.	.	4r	4G/	.	.	.	.	.
4Ra\	4GG/	4r	.	.	.	4d 4B\	4G/	.	.	.	.	.
!	!	!	!	!	!	!LO:TX:t=P:problem:brak pauzy 4r	!	!	!	!	!	!
4r	4r	4g/	.	.	.	4ryy	4G/	.	.	.	.	.
*Xrep	*Xrep	*Xrep	*	*	*	*Xrep	*Xrep	*	*	*	*	*
=44	=44	=44	=44	=44	=44	=44	=44	=44	=44	=44	=44	=44
*rep	*rep	*rep	*	*	*	*rep	*rep	*	*	*	*	*
4Ra\	4GG/	4r	.	4.b/]	.	4d 4B\	4G/	.	4.b/]	.	4.bb\]	.
4r	4r	4g/	.	.	.	4r	4G/	.	.	.	.	.
.	.	.	.	8f#/	.	.	.	.	8f#/	.	8ff#\	.
4Ra\	4GG/	4r	.	4.a/	.	4d 4B\	4G/	.	4.a/	.	4.aa\	.
!	!	!	!	!	!	!LO:TX:t=P:problem:brak pauzy 4r	!	!	!	!	!	!
4r	4r	4g/	.	.	.	4ryy	4G/	.	.	.	.	.
.	.	.	.	8g/	.	.	.	.	8g/	.	8gg\	.
*Xrep	*Xrep	*Xrep	*	*	*	*Xrep	*Xrep	*	*	*	*	*
=45	=45	=45	=45	=45	=45	=45	=45	=45	=45	=45	=45	=45
*rep	*	*	*	*	*	*	*	*	*	*	*	*
4Ra\	4C/	1d	.	1f#	.	4e 4cX\	4A/	.	(1f#	.	(1ff#	.
*	*	*	*	*	*	*	*rep	*	*	*	*	*
4r	4r	.	.	.	.	4r	4A/	.	.	.	.	.
*	*	*	*	*	*	*	*Xrep	*	*	*	*	*
*	*	*	*	*	*	*	*rep	*	*	*	*	*
4Ra\	4C/	.	.	.	.	4e 4c\	4A/	.	.	.	.	.
*	*	*	*	*	*	*	*Xrep	*	*	*	*	*
*	*	*	*	*	*	*	*rep	*	*	*	*	*
!	!	!	!	!	!	!LO:TX:t=P:problem:brak pauzy 4r	!	!	!	!	!	!
4r	4r	.	.	.	.	4ryy	4A/	.	.	.	.	.
*Xrep	*	*	*	*	*	*	*Xrep	*	*	*	*	*
=46	=46	=46	=46	=46	=46	=46	=46	=46	=46	=46	=46	=46
*rep	*rep	*	*	*	*	*rep	*rep	*	*	*	*	*
4Ra\	4C/	4cn/	.	4e/	.	4e 4c#\	4A/	.	4e/)	.	4ee\)	.
4r	4r	8r	.	8r	.	4r	4A/	.	8r	.	8r	.
.	.	8G#X/	.	8g#X/	.	.	.	.	8g#X/	.	8gg#X\	.
4Ra\	4C/	4.A/	.	4.a/	.	4e 4c#\	4A/	.	4.a/	.	4.aa\	.
!	!	!	!	!	!	!LO:TX:t=P:problem:brak pauzy 4r	!	!	!	!	!	!
4r	4r	.	.	.	.	4ryy	4A/	.	.	.	.	.
.	.	8c/	.	8cc/	.	.	.	.	8cc\	.	8ccc\	.
*Xrep	*Xrep	*	*	*	*	*Xrep	*Xrep	*	*	*	*	*
=47	=47	=47	=47	=47	=47	=47	=47	=47	=47	=47	=47	=47
*rep	*	*	*	*	*	*	*rep	*	*	*	*	*
!	!	!LO:N:vis=2	!	!	!	!LO:SIC:v:n=2:s=4c\	!	!	!LO:TX:a:t=P:problem:brak początku łuku	!	!	!
4Ra\	4D\	1f#	.	1ff#	.	4d 4B\	4A/	.	(1ff#	.	1fff#	.
4r	4r	.	.	.	.	4r	4A/	.	.	.	.	.
!	!	!	!	!	!	!LO:SIC:v:n=2:s=4c\	!	!	!	!	!	!
4Ra\	4D\	.	.	.	.	4d 4B\	4A/	.	.	.	.	.
4r	4r	.	.	.	.	4r	4A/	.	.	.	.	.
*Xrep	*	*	*	*	*	*	*Xrep	*	*	*	*	*
!	!	!	!	!LO:LB:g=original	!	!	!	!	!LO:LB:g=original	!	!LO:LB:g=original	!
=48	=48	=48	=48	=48	=48	=48	=48	=48	=48	=48	=48	=48
*rep	*rep	*	*	*	*	*rep	*rep	*	*	*	*	*
!	!	!	!	!	!	!LO:SIC:v:n=2:s=4c\	!	!	!	!	!	!
4Ra\	4D\	4e/	.	4ee\	.	4d 4B\	4A/	.	4ee\)	.	4eee\	.
4r	4r	4d/	.	4dd\	.	4r	4A/	.	4dd\	.	4ddd\	.
!	!	!	!	!	!	!LO:SIC:v:n=2:s=4c\	!	!	!	!	!	!
4Ra\	4D\	4.e/	.	4.e/	.	4d 4B\	4A/	.	4.e/	.	4.ee\	.
4r	4r	.	.	.	.	4r	4A/	.	.	.	.	.
.	.	8f#/	.	8f#/	.	.	.	.	8f#/	.	8ff#\	.
*Xrep	*Xrep	*	*	*	*	*Xrep	*Xrep	*	*	*	*	*
!	!	!LO:LB:g=original	!	!	!	!	!	!	!	!	!	!
=49	=49	=49	=49	=49	=49	=49	=49	=49	=49	=49	=49	=49
*rep	*	*	*	*	*	*rep	*	*	*	*	*	*
4Ra\	4GG/	2g/	.	2g/	.	4d 4B\	4G/	.	2g/	.	2gg\	.
*	*	*	*	*	*	*	*rep	*	*	*	*	*
4r	4r	.	.	.	.	4r	4G/	.	.	.	.	.
*	*	*	*	*	*	*	*Xrep	*	*	*	*	*
*	*	*	*	*	*	*	*rep	*	*	*	*	*
4Ra\	4GG/	4r	.	2r	.	4d 4B\	4G/	.	2r	.	2r	.
*	*	*	*	*	*	*	*Xrep	*	*	*	*	*
*	*	*	*	*	*	*	*rep	*	*	*	*	*
4r	4r	4g/	.	.	.	4r	4G/	.	.	.	.	.
*Xrep	*	*	*	*	*	*Xrep	*Xrep	*	*	*	*	*
!LO:LB:g=original	!	!	!	!	!	!	!	!	!	!	!	!
=50	=50	=50	=50	=50	=50	=50	=50	=50	=50	=50	=50	=50
*rep	*rep	*	*	*	*	*rep	*rep	*	*	*	*	*
4Ra\	4GG/	4r	.	4r	.	4d 4B\	4G/	.	4r	.	4r	.
4r	4r	4g/	.	8r	.	4r	4G/	.	8r	.	8r	.
.	.	.	.	8d/	.	.	.	.	8d/	.	8dd\	.
4Ra\	4GG/	4r	.	4.g/	.	4d 4B\	4G/	.	4.g/	.	4.gg\	.
4r	4r	4g/	.	.	.	4r	4G/	.	.	.	.	.
.	.	.	.	8a/	.	.	.	.	8a/	.	8aa\	.
*Xrep	*Xrep	*	*	*	*	*Xrep	*Xrep	*	*	*	*	*
!	!	!	!	!	!	!LO:LB:g=original	!LO:LB:g=original	!	!	!	!	!
=51	=51	=51	=51	=51	=51	=51	=51	=51	=51	=51	=51	=51
*rep	*rep	*rep	*	*	*	*rep	*rep	*	*	*	*	*
4Ra\	4GG/	4r	.	[1b	.	4d 4B\	4G/	.	[1b	.	[1bb	.
4r	4r	4g/	.	.	.	4r	4G/	.	.	.	.	.
4Ra\	4GG/	4r	.	.	.	4d 4B\	4G/	.	.	.	.	.
4r	4r	4g/	.	.	.	4r	4G/	.	.	.	.	.
*Xrep	*Xrep	*Xrep	*	*	*	*Xrep	*Xrep	*	*	*	*	*
=52	=52	=52	=52	=52	=52	=52	=52	=52	=52	=52	=52	=52
*rep	*rep	*rep	*	*	*	*rep	*rep	*	*	*	*	*
4Ra\	4GG/	4r	.	4.b/]	.	4d 4B\	4G/	.	4.b/]	.	4.bb\]	.
4r	4r	4g/	.	.	.	4r	4G/	.	.	.	.	.
.	.	.	.	8f#/	.	.	.	.	8f#/	.	8ff#\	.
4Ra\	4GG/	4r	.	4.a/	.	4d 4B\	4G/	.	4.a/	.	4.aa\	.
4r	4r	4g/	.	.	.	4r	4G/	.	.	.	.	.
.	.	.	.	8g/	.	.	.	.	8g/	.	8gg\	.
*Xrep	*Xrep	*Xrep	*	*	*	*Xrep	*Xrep	*	*	*	*	*
!	!LO:LB:g=original	!	!	!	!	!	!	!	!	!	!	!
=53	=53	=53	=53	=53	=53	=53	=53	=53	=53	=53	=53	=53
*rep	*	*	*	*	*	*	*	*	*	*	*	*
4Ra\	4C/	1d	.	1f#	.	4e 4cX\	4A/	.	(1f#	.	(1ff#	.
*	*	*	*	*	*	*	*rep	*	*	*	*	*
4r	4r	.	.	.	.	4r	4A/	.	.	.	.	.
*	*	*	*	*	*	*	*Xrep	*	*	*	*	*
*	*	*	*	*	*	*	*rep	*	*	*	*	*
4Ra\	4C/	.	.	.	.	4e 4c\	4A/	.	.	.	.	.
*	*	*	*	*	*	*	*Xrep	*	*	*	*	*
*	*	*	*	*	*	*	*rep	*	*	*	*	*
4r	4r	.	.	.	.	4r	4A/	.	.	.	.	.
*Xrep	*	*	*	*	*	*	*Xrep	*	*	*	*	*
=54	=54	=54	=54	=54	=54	=54	=54	=54	=54	=54	=54	=54
*rep	*rep	*	*	*	*	*rep	*rep	*	*	*	*	*
4Ra\	4C/	4cn/	.	4e/	.	4e 4c#\	4A/	.	4e/)	.	4ee\)	.
4r	4r	8r	.	8r	.	4r	4A/	.	8r	.	8r	.
.	.	8G#X/	.	8g#X/	.	.	.	.	8g#X/	.	8gg#X\	.
4Ra\	4C/	4.A/	.	4.a/	.	4e 4c#\	4A/	.	4.a/	.	4.aa\	.
4r	4r	.	.	.	.	4r	4A/	.	.	.	.	.
.	.	8c/	.	8cc/	.	.	.	.	8cc\	.	8ccc\	.
*Xrep	*Xrep	*	*	*	*	*Xrep	*Xrep	*	*	*	*	*
!	!	!	!	!LO:LB:g=original	!	!	!	!	!LO:LB:g=original	!	!LO:LB:g=original	!
=55	=55	=55	=55	=55	=55	=55	=55	=55	=55	=55	=55	=55
*rep	*	*	*	*	*	*	*rep	*	*	*	*	*
!	!	!	!	!	!	!LO:SIC:v:n=2:s=4c\	!	!	!	!	!	!
4Ra\	4D\	4r	.	2.ff#\	.	4d 4B\	4A/	.	2.ff#\	.	2.fff#\	.
4r	4r	4a/	.	.	.	4r	4A/	.	.	.	.	.
!	!	!	!	!	!	!LO:SIC:v:n=2:s=4c\	!	!	!	!	!	!
4Ra\	4D\	4r	.	.	.	4d 4B\	4A/	.	.	.	.	.
4r	4r	4a/	.	4ee\	.	4r	4A/	.	4ee\	.	4eee\	.
*Xrep	*	*	*	*	*	*	*Xrep	*	*	*	*	*
=56	=56	=56	=56	=56	=56	=56	=56	=56	=56	=56	=56	=56
*rep	*rep	*rep	*	*	*	*rep	*rep	*	*	*	*	*
!	!	!	!	!	!	!LO:SIC:v:n=2:s=4c\	!	!	!	!	!	!
4Ra\	4D\	4r	.	4dd\	.	4d 4B\	4A/	.	4dd\	.	4ddd\	.
4r	4r	4a/	.	4cc\	.	4r	4A/	.	4cc\	.	4ccc\	.
!	!	!	!	!	!	!LO:SIC:v:n=2:s=4c\	!	!	!	!	!	!
4Ra\	4D\	4r	.	4e/	.	4d 4B\	4A/	.	4e/	.	4ee\	.
4r	4r	4a/	.	4f#/	.	4r	4A/	.	4f#/	.	4ff#\	.
*Xrep	*Xrep	*Xrep	*	*	*	*Xrep	*Xrep	*	*	*	*	*
!	!	!LO:LB:g=original	!	!	!	!	!	!	!	!	!	!
=57	=57	=57	=57	=57	=57	=57	=57	=57	=57	=57	=57	=57
4Ra/	4GG/	4g/	.	4g/	.	4d 4B\	4G/	.	4g/	.	4gg\	.
*	*	*tremolo	*	*	*	*	*	*	*	*	*	*
4r	8GG/L	8g/L	.	8g/L	.	4r	8G/L	.	8g/L	.	8gg\L	.
.	8GG/J	8g/J	.	8g/J	.	.	8G/J	.	8g/J	.	8gg\J	.
*	*	*Xtremolo	*	*	*	*	*	*	*	*	*	*
2r	4GG/	4g/	.	4g/	.	2r	4G/	.	4g/	.	4gg\	.
.	4GG/	4g/	.	4g/	.	.	4G/	.	4g/	.	4gg\	.
=58	=58	=58	=58	=58	=58	=58	=58	=58	=58	=58	=58	=58
!LO:TX:a:t=1	!	!	!	!	!	!LO:TX:a:t=1	!	!	!	!	!	!
1r	4GG/	4g/	.	4g/	.	1r	4G/	.	4g/	.	4gg\	.
*	*rep	*	*	*	*	*	*rep	*	*	*	*	*
.	4GG/	4g/	.	4g/	.	.	4G/	.	4g/	.	4gg\	.
*	*Xrep	*	*	*	*	*	*Xrep	*	*	*	*	*
*	*rep	*	*	*	*	*	*rep	*	*	*	*	*
.	4GG/	4g/	.	4g/	.	.	4G/	.	4g/	.	4gg\	.
*	*Xrep	*	*	*	*	*	*Xrep	*	*	*	*	*
*	*rep	*	*	*	*	*	*rep	*	*	*	*	*
.	4GG/	8g/L	.	8g/L	.	.	4G/	.	8g/L	.	8gg\L	.
.	.	8a/J	.	8a/J	.	.	.	.	8a/J	.	8aa\J	.
*	*Xrep	*	*	*	*	*	*Xrep	*	*	*	*	*
=59	=59	=59	=59	=59	=59	=59	=59	=59	=59	=59	=59	=59
4Ra\	4GG\	4b/	.	4b/	.	4r	4r	.	4bb\	.	4bb\	.
4r	4r	4g/	.	4g/	.	4d 4B\	4G/	.	4gg\	.	4gg\	.
4Ra\	4G\	4.cc/	.	4.ee\	.	4r	4r	.	4.ccc\	.	4.eee\	.
4r	4r	.	.	.	.	4d 4B\	4G/	.	.	.	.	.
.	.	8b/	.	8dd\	.	.	.	.	8bb\	.	8ddd\	.
!	!	!	!	!	!	!	!LO:LB:g=original	!	!	!	!	!
=60	=60	=60	=60	=60	=60	=60	=60	=60	=60	=60	=60	=60
2Ra/	4D\	4b/	.	4dd\	.	4r	4r	.	4bb\	.	4ddd\	.
.	4r	8ccn/L	.	8ccn\L	.	4d 4B\	4A/	.	8aa\L	.	8ccc\L	.
.	.	8a/J	.	8a\J	.	.	.	.	8ff#\J	.	8aa\J	.
*	*	*	*	*	*	*rep	*rep	*	*	*	*	*
2r	4D\	4f#/	.	4f#/	.	4d 4B\	4A/	.	4dd\	.	4ff#\	.
*	*	*	*	*	*	*Xrep	*Xrep	*	*	*	*	*
*	*	*	*	*	*	*rep	*rep	*	*	*	*	*
.	4r	8a/L	.	8a\L	.	4d 4B\	4A/	.	8ff#\L	.	8aa\L	.
.	.	8b/J	.	8b\J	.	.	.	.	8gg\J	.	8bb\J	.
*	*	*	*	*	*	*Xrep	*Xrep	*	*	*	*	*
!	!	!	!	!LO:LB:g=original	!	!LO:LB:g=original	!	!	!LO:LB:g=original	!	!LO:LB:g=original	!
=61	=61	=61	=61	=61	=61	=61	=61	=61	=61	=61	=61	=61
*	*rep	*	*	*	*	*	*	*	*	*	*	*
4Ra\	4D\	4ccn\	.	4cc\	.	4r	4r	.	4aa\	.	4ccc\	.
4r	4r	4a\	.	4a\	.	4d 4A\	4A/	.	4dd\	.	4aa\	.
*	*	*	*	*	*	*rep	*	*	*	*	*	*
4Ra\	4D\	4.dd\	.	4.ff#\	.	4d 4A\	4r	.	4.ddd\	.	4.fff#\	.
*	*	*	*	*	*	*Xrep	*	*	*	*	*	*
*	*	*	*	*	*	*rep	*	*	*	*	*	*
4r	4r	.	.	.	.	4d 4A\	4A/	.	.	.	.	.
.	.	8ccn\	.	8ee\	.	.	.	.	8ccc\	.	8eee\	.
*	*Xrep	*	*	*	*	*Xrep	*	*	*	*	*	*
!LO:LB:g=original	!LO:LB:g=original	!LO:LB:g=original	!	!	!	!	!	!	!	!	!	!
=62	=62	=62	=62	=62	=62	=62	=62	=62	=62	=62	=62	=62
2Ra/	4GG/	4cc/	.	4ee\	.	4r	4r	.	4ccc\	.	4eee\	.
.	4r	8b/L	.	8dd\L	.	4d 4B\	4G/	.	8bb\L	.	8ddd\L	.
.	.	8b/J	.	8b\J	.	.	.	.	8bb\J	.	8bb\J	.
*	*	*	*	*	*	*rep	*rep	*	*	*	*	*
2r	4GG/	4g/	.	4g/	.	4d 4B\	4G/	.	4gg\	.	4gg\	.
*	*	*	*	*	*	*Xrep	*Xrep	*	*	*	*	*
*	*	*	*	*	*	*rep	*rep	*	*	*	*	*
.	4r	8b/L	.	8b/L	.	4d 4B\	4G/	.	8bb\L	.	8bb\L	.
.	.	8cc/J	.	8cc/J	.	.	.	.	8ccc\J	.	8ccc\J	.
*	*	*	*	*	*	*Xrep	*Xrep	*	*	*	*	*
=63	=63	=63	=63	=63	=63	=63	=63	=63	=63	=63	=63	=63
*	*rep	*	*	*	*	*	*	*	*	*	*	*
4Ra\	4GG/	4dd\	.	4dd\	.	4r	4r	.	4ddd\	.	4ddd\	.
4r	4r	4g/	.	4g\	.	4d 4B\	4G/	.	4g/	.	4g/	.
*	*	*	*	*	*	*rep	*	*	*	*	*	*
4Ra\	4GG/	4g/	.	4b\	.	4r	4r	.	4bb\	.	4bb\	.
*	*	*tremolo	*	*	*	*rep	*	*	*	*	*	*
4r	4r	8g/L	.	8a\L	.	4d 4B\	4G/	.	8aa\L	.	8aa\L	.
.	.	8g/J	.	8g\J	.	.	.	.	8gg\J	.	8gg\J	.
*	*Xrep	*	*	*	*	*	*	*	*	*	*	*
=64	=64	=64	=64	=64	=64	=64	=64	=64	=64	=64	=64	=64
!	!	!	!	!	!	!	!	!	!	!	!LO:N:vis=4	!
4Ra/	4C\	4r	.	8f#/L	.	4r	4r	.	8ff#\L	.	8ff#\	.
.	.	.	.	8e/	.	.	.	.	8ee\	.	8eeL\	.
!	!	!	!	!	!	!	!LO:TX:b:t=g	!	!	!	!	!
4Ra/	4r	8a/L	.	8d#X/	.	4e 4cX\	4A/	.	8dd#X\	.	8dd#X\	.
.	.	8a/J	.	8e/J	.	.	.	.	8ee\J	.	8ee\J	.
*	*	*Xtremolo	*	*	*	*rep	*rep	*	*	*	*	*
4Ra/	4C\	4a/	.	4A/	.	4e 4c\	4A/	.	4a/	.	4a\	.
*	*	*	*	*	*	*Xrep	*Xrep	*	*	*	*	*
*	*	*	*	*	*	*rep	*rep	*	*	*	*	*
4r	4r	4a/	.	8a/L	.	4e 4c\	4A/	.	8a/L	.	8aa\L	.
.	.	.	.	8b/J	.	.	.	.	8b/J	.	8bb\J	.
*	*	*	*	*	*	*Xrep	*Xrep	*	*	*	*	*
=65	=65	=65	=65	=65	=65	=65	=65	=65	=65	=65	=65	=65
*	*	*rep	*	*	*	*	*	*	*	*	*	*
!	!	!	!	!	!	!	!LO:TX:t=P:problem:brak taktu nr 65	!	!	!	!	!
4Ra/	4D\	4r	.	4cc\	.	4r	1ryy	.	4cc\	.	4ccc\	.
*	*	*tremolo	*	*	*	*	*	*	*	*	*	*
4r	4r	8a/L	.	4a\	.	4d 4cX\	.	.	4f#/	.	4aa\	.
.	.	8a/J	.	.	.	.	.	.	.	.	.	.
*	*	*Xtremolo	*	*	*	*rep	*	*	*	*	*	*
!	!	!	!	!	!	!	!	!	!LO:TX:t=P:problem:mixed beam	!	!	!
4Ra/	4DD/	4a/	.	8ff#\L	.	4d 4c\	.	.	8ff#\L	.	8fff#\L	.
!	!	!	!	!LO:TX:a:t=d	!	!	!	!	!	!	!	!
.	.	.	.	8ee\	.	.	.	.	8ee\	.	8eee\	.
*	*	*	*	*	*	*Xrep	*	*	*	*	*	*
*	*	*	*	*	*	*rep	*	*	*	*	*	*
4r	4r	4a/	.	8dd\	.	4d 4c\	.	.	8dd\	.	8ddd\	.
!	!	!	!	!	!	!	!	!	!LO:TX:b:t=e	!	!	!
.	.	.	.	8f#\J	.	.	.	.	8f#/J	.	8ff#\J	.
*	*	*Xrep	*	*	*	*Xrep	*	*	*	*	*	*
=66	=66	=66	=66	=66	=66	=66	=66	=66	=66	=66	=66	=66
4Ra/	4GG/	4g~/	.	4g/	.	4d 4B\	4G/	.	4g/	.	4gg\	.
*	*rep	*	*	*	*	*rep	*	*	*rep	*	*	*
4Ra/	4GG/	4g~/	.	4g/	.	4d 4B\	4G/	.	4g/	.	4gg\	.
*	*Xrep	*	*	*	*	*Xrep	*	*	*Xrep	*	*	*
*	*rep	*	*	*	*	*rep	*	*	*rep	*	*	*
4Ra/	4GG/	4g~/	.	4g/	.	4d 4B\	4G/	.	4g/	.	4gg\	.
*	*Xrep	*	*	*	*	*Xrep	*	*	*Xrep	*	*	*
!LO:TX:b:Bi:t=Poycie dobrze.\n Dam im Tabaki\n dobrej\n Krakowskiey	!	!	!	!	!	!	!	!	!	!	!	!
!LO:TX:b:i:t=Fixnis	!	!	!	!	!	!	!	!	!	!	!	!
4r	4r	4r	.	4r	.	4r	4r	.	4r	.	4r	.
==:|!	==:|!	==:|!	==:|!	==:|!	==:|!	==:|!	==:|!	==:|!	==:|!	==:|!	==:|!	==:|!
*-	*-	*-	*-	*-	*-	*-	*-	*-	*-	*-	*-	*-
!!!system-decoration: [(g1)][(g2)]s8
!!!RDF**kern: > = above
!!!RDF**kern: < = below
!!!ENC: Anastazja Marusiak
!!!END: 2020-08-17
!!!ENC: Andrzej Kubiczek
!!!END: 2021-11-02
